X:8986
T:La Media Vuelta (MQ 074)
T:Xota II (MQ 074)
T:Jota II (MQ 074)
R:Xota
C:Tradicional
S:Música Tradicional Asturiana, (C) Tello & Tito. Asturies, 2001.
S:http://pagina.de/MusTradAst <telloytito@asturies.org>
N:Esta jota la bailaba el grupo de danzas del Centro A. de Madrid, en la época en que yo estuve allí, la llamaban "la media vuelta".
A:Asturies
Z:Manolo Quirós 074
M:3/8
L:1/8
Q:3/8=84
K:C
G
|GAG|E2 E|EDE|F2 F|FGF|D2 D|DCD|E2 G|
G A/B/A/G/|E2 E|E F/E/D/E/|F2 F|F G/F/E/F/|D2 D|D E/D/C/D/|E2 G|
c2 A|B2 G|A A/B/A/G/|F2 G|ABc|BAG|FED|C3|
|: DEF|A2 G/E/|GFD|E/F/E/D/ C|DEF|A2 G/E/|GFD|[1 C3 :|[2 C2 G|
|G E/G/E/G/|: G E/F/ G|G E/G/E/G/|A E/F/ A|A E/F/E/F/ :|
|: G/F/E/F/ G|G E/F/E/F/|G/F/E/F/ A|A E/F/E/F/ :|
|: G/F/E/F/E/F/|G/F/E/F/E/F/|A/F/E/F/E/F/|A/F/E/F/E/F/ :|
GAB|cde|f2 e/d/|cBA|GFE/D/|C3|


